wilib/img/svg/balao.svg

<svg xmlns="http://www.w3.org/2000/svg" xmlns:xlink="http://www.w3.org/1999/xlink" preserveAspectRatio="none" width="781" height="426" viewBox="0 0 781 426"><defs><path fill="#CFCECE" d="M756.8 269.8q-4.9-2.9-12.6-5.15-8.75-2.25-13.1-3.65h-24q-2.05.6-6.05.95-4.2.3-6.15.85-15.05 4.35-27.5 14.8-1.75 1.45-2.85 1.65-1.55.25-3.15-1.25-17.6-15.9-37.3-17h-20q-1.15.75-1.75.85-28.55 3.05-45.5 27.2-1.8 2.55-3.5 2.25-.75-.15-3.1-1.85-29.55-21.6-70.15-13.55-30.3 5.95-49.1 32.3-1 1.45-1.8 1.85-1.05.55-2.6-.2-15.05-7.15-32.85-9.5-21.15-2.8-41.5 1.7-22.7 5.05-41.7 21.3-11.75 10-19.15 20.8-8.25 12.05-11.55 25.85-3.15 13.1-1.85 27.1.2 2.2-.35 3.25-.7 1.4-3 1.65-23.85 2.65-41.1 23.15-12.25 14.4-12.6 32.8-.3 15 5.65 27.75-1.7-.25-3.2-1.6-1.5-1.55-2.4-2.15-12.85-8.6-31.3-10.3-14.5-1.4-26.2 1.25-13.15 2.95-23.7 11.05-12 9.2-12.7 22.45-.65 13.1 10.15 22.7 1.4 1.2 5.05 3.7 3.3 2.2 4.9 3.8-.95.25-2.05-.05-11.25-2.4-20.9-1-10.45 1.5-19.6 7.6-8.25 5.55-8.95 15.45-.65 9.65 6.15 15.05 2.4 1.9 7.45 5.7-7.85-1.2-13.6.1-6.75 1.5-11.7 6.6v11q5.4 6.45 14.35 7.9 8.95 1.4 15.95-3.15 5.65-3.7 6.55-8.65.9-5.2-4.1-8.95-.7-.55-.8-.7-.4-.55.05-1.2 12.25 2.55 21.65 1.75 11.3-.9 20.7-6.65 9.9-6.05 10.6-16.35.7-10.3-8.4-17.3-1.25-.9-1.25-.95-.6-.65-.4-1.7 26.35 7.15 48.1-1.1 17-6.45 23.55-15.15 7.65-10.2 4.65-27.05 4.7 5 10.65 9.1 4 2.8 4.15 3.85.15 1-2.85 4.65-17.2 20.65-10.3 48.2 3 11.95 11.35 21.4 7.25 8.3 19.05 15.1 16.2 9.4 36 7.95 2.2-.2 3.75.7 1.4.75 2.75 2.65 4.55 6.2 5.05 6.85 2.95 3.8 5.5 6.4 30.5 30.85 76.55 35.25 34.15 3.3 65.25-12.45 2.1-1.05 3.45-.65 1.15.35 2.65 2.25 21 25.9 55.9 34.15 2.85.65 9.55 1.3 6.15.6 9.45 1.55h12q.35-.15 1.1-.55.65-.3 1.1-.3 21.65-.45 44.95-13.2 29.3-16.1 41.1-43.95 1.55-3.65 3.25-4.2 1.6-.5 4.9 1.3 14.3 7.65 33.95 8.75 33.75 1.85 59.55-17.1 14.9-11 22.85-24.25 8.6-14.4 9.3-31.95.1-1.85.8-2.65.75-.75 2.6-1.1 7.5-1.4 12.4-2.7 6.7-1.8 11.95-4.2 22.15-10 36.05-25.1 14.9-16.25 20.75-38.8.7-2.55 1.1-8.55.35-5.55 1.35-8.5v-6q-.7-.55-.85-1.5-.05-.15-.1-1.7-.95-23.4-17.6-44.65-1.45-1.85-1.7-3.25-.3-1.55.5-3.75 11.8-32.4-5.9-60.05-15.85-24.85-44.7-32.95-1.65-.5-2.35-1-.95-.75-1.35-2.3-3.15-13.75-12.15-24.55-8-9.65-21.15-17.5z" id="a"/><path fill="#FFF" d="M758.2 273.55q-9.75-6.15-21.95-8.4-10.3-1.9-23.65-1.3-32.45 1.6-51.8 26.7-1.45 1.9-7.65 10.6-.85-1.05-.8-1.95 0-.5.5-1.35 2.3-3.8 3.45-5.5 2-3 4.05-5.1 1.25-1.25 1.3-2.2.1-1.1-1.2-2.3-4-3.85-6.4-5.9-3.7-3.05-7.15-5-8.7-4.95-19.15-6.85-8.9-1.6-20.35-1.2-23.1.9-40.45 16.8-10.55 9.7-15.5 24.55-.2.65-.55 2.25-.45 1.2-1.75.75-1.25-.45-.85-1.75.75-1.5.9-2.15.9-3.05 2.8-6.95.75-1.6.6-2.55-.2-1.15-1.75-1.95-.8-.4-2.05-1.4-1.45-1.15-2-1.5-38.5-24.1-81.4-7-19.05 7.6-31.5 25.2-1.65 2.35-1.5 3.7.2 1.5 2.7 2.95 2.6 1.5 6 3.95 2 1.4 5.85 4.25.6.45 2.15 1.4 1.05 1 .1 2.15-.75.9-1.85.15-1.2-1.2-1.75-1.65-9.35-8.35-22.2-14.15-28.7-12.85-63.4-7.6-36.2 5.45-61.1 35.35-26.1 31.3-16.15 71.35.25 1.05 1.05 3.25.4 2.1-.9 4.1-2.45-3.7-3.15-8.85-.4-3.05-1.95-3.95-1.5-.85-4.55-.1-20.45 4.8-35.45 20.1-13.95 14.2-14.1 36.25-.2 22.2 13.85 36.25 19.35 19.35 47.4 20.05 1.25.05 3.8-.15 2.25 0 3.7.75-.2.85-.65 1.15-.3.2-.95.3-6.85.9-14.35-.25-6.35-.95-13.9-3.55-7.8-2.65-9.9-1.95-2.1.7-6.95 7.65-.25.3-1.55 2.55-9.25 15.9-5.5 35.5 3.8 19.95 18.85 31.35 14.7 11.15 30.1 14.35Q303.5 608 320.7 603q.8-.2 2.5-.8 1.5-.25 2.8 1-4.9 3.2-10.2 3.85-3.75.5-4.25 1.45t1.65 3.8q18.1 24.55 47.15 36.35 29.45 11.9 59.9 8.6 21.1-2.35 40-11.15 2.45-1.15 2.7-2.45.2-1.15-1.2-3.35-1.35-2.1-3.1-5.4l-2.9-5.55q-.5-.95-.6-1.4-.15-.85.55-1.25.95-.55 1.55.1.15.15.9 1.5l.9 1.8q5.2 12.25 17.9 24.95 24.85 24.7 62.35 27.85 34.4 2.9 63.65-14.15 37.2-21.75 44.2-63 .4-2.1.55-2.5.6-1.4 2.1-2 .6 3.6-.25 8-.2.8-1.95 7.45-.6 2.1.05 3.35.55 1.1 2.45 2.1 14.05 7.35 30.4 8.75 19.25 1.65 35.3-2.65 17.4-4.6 31.5-16.3 27.35-22.55 27.85-55.45.2-11.75-4.2-23.9-.45-1.2-.45-1.45-.1-.8.6-1.2 1.05-.55 1.65.2.3.35.65 1.55.65 2.25 2.05 6.65 1.1 3.9 1.55 6.75 1.15 7.5 2.45 8.45 1.45 1.05 8.7-.75 27.45-6.65 47.45-26.45 21.4-21.1 24.85-48.6 4.15-33-16.4-60.9-1.15-1.6-2.1-1.5-.85.15-1.9 1.8-3.15 4.8-3.4 5.2-2 2.95-3.75 4.95-4.3 5-5.9 6.45-3.55 3.35-7.4 4.75 1.9-2.55 5.4-6.3 4.2-4.55 5.5-6.1 20.3-24.15 14.85-53.4-7.05-37.75-46.65-53.35-4.85-1.9-5.7-1.4-.8.55-.9 5.65 0 .7.05 2.35-.2 1.3-1.5 1.25-1.15-.05-1.4-1.4 0-1.65-.05-2.35-1.45-31.3-31-49.9z" id="b"/><path fill="#FFF" d="M193.5 474.5q-7.85-.95-17.9-.5-11.75.55-21 4.3-10.15 4.15-17.75 12.25-7.7 8.15-6.85 19.35.9 11.2 9.8 18.05 19.15 14.75 41.35 13.05 22.05 1.7 39.8-10.95 9.7-6.95 12.15-16.7 2.6-10.35-4.1-20.1-6.2-9.05-18.25-14.2-7.9-3.35-17.25-4.55z" id="c"/><path fill="#FFF" d="M101.85 549.15q-3.75 4.55-3.8 10.45-.05 10.7 11.5 16.65 24.65 12.75 47.75-1.4 8.85-5.45 9.05-14.65.2-9.1-8.25-15.1-11.4-8.2-25.55-7-11.75-1.3-21.95 4.3-5.8 3.25-8.75 6.75z" id="d"/><path fill="#FFF" d="M118.05 592.85q.4-4-3.15-7.3-4.95-4.55-14.25-3.9-9.3.6-13.6 5.75-3.9 4.7.15 9.4 2.75 3.2 6.65 4.4 3.4 1.1 8.25.8 5.3.95 11.45-2.7 4.15-2.45 4.5-6.45z" id="e"/></defs><use xlink:href="#a" transform="translate(-84 -261)"/><use xlink:href="#b" transform="translate(-84 -261)"/><use xlink:href="#c" transform="translate(-84 -261)"/><use xlink:href="#d" transform="translate(-84 -261)"/><use xlink:href="#e" transform="translate(-84 -261)"/></svg>

<svg xmlns="http://www.w3.org/2000/svg" version="1.1" xmlns:xlink="http://www.w3.org/1999/xlink" preserveAspectRatio="none" x="0px" y="0px" width="781px" height="426px" viewBox="0 0 781 426">
<defs>
<g id="Layer0_0_MEMBER_0_FILL">
<path fill="#CFCECE" stroke="none" d="
M 756.8 269.8
Q 751.9 266.9 744.2 264.65 735.45 262.4 731.1 261
L 707.1 261
Q 705.05 261.6 701.05 261.95 696.85 262.25 694.9 262.8 679.85 267.15 667.4 277.6 665.65 279.05 664.55 279.25 663 279.5 661.4 278 643.8 262.1 624.1 261
L 604.1 261
Q 602.95 261.75 602.35 261.85 573.8 264.9 556.85 289.05 555.05 291.6 553.35 291.3 552.6 291.15 550.25 289.45 520.7 267.85 480.1 275.9 449.8 281.85 431 308.2 430 309.65 429.2 310.05 428.15 310.6 426.6 309.85 411.55 302.7 393.75 300.35 372.6 297.55 352.25 302.05 329.55 307.1 310.55 323.35 298.8 333.35 291.4 344.15 283.15 356.2 279.85 370 276.7 383.1 278 397.1 278.2 399.3 277.65 400.35 276.95 401.75 274.65 402 250.8 404.65 233.55 425.15 221.3 439.55 220.95 457.95 220.65 472.95 226.6 485.7 224.9 485.45 223.4 484.1 221.9 482.55 221 481.95 208.15 473.35 189.7 471.65 175.2 470.25 163.5 472.9 150.35 475.85 139.8 483.95 127.8 493.15 127.1 506.4 126.45 519.5 137.25 529.1 138.65 530.3 142.3 532.8 145.6 535 147.2 536.6 146.25 536.85 145.15 536.55 133.9 534.15 124.25 535.55 113.8 537.05 104.65 543.15 96.4 548.7 95.7 558.6 95.05 568.25 101.85 573.65 104.25 575.55 109.3 579.35 101.45 578.15 95.7 579.45 88.95 580.95 84 586.05
L 84 597.05
Q 89.4 603.5 98.35 604.95 107.3 606.35 114.3 601.8 119.95 598.1 120.85 593.15 121.75 587.95 116.75 584.2 116.05 583.65 115.95 583.5 115.55 582.95 116 582.3 128.25 584.85 137.65 584.05 148.95 583.15 158.35 577.4 168.25 571.35 168.95 561.05 169.65 550.75 160.55 543.75 159.3 542.85 159.3 542.8 158.7 542.15 158.9 541.1 185.25 548.25 207 540 224 533.55 230.55 524.85 238.2 514.65 235.2 497.8 239.9 502.8 245.85 506.9 249.85 509.7 250 510.75 250.15 511.75 247.15 515.4 229.95 536.05 236.85 563.6 239.85 575.55 248.2 585 255.45 593.3 267.25 600.1 283.45 609.5 303.25 608.05 305.45 607.85 307 608.75 308.4 609.5 309.75 611.4 314.3 617.6 314.8 618.25 317.75 622.05 320.3 624.65 350.8 655.5 396.85 659.9 431 663.2 462.1 647.45 464.2 646.4 465.55 646.8 466.7 647.15 468.2 649.05 489.2 674.95 524.1 683.2 526.95 683.85 533.65 684.5 539.8 685.1 543.1 686.05
L 555.1 686.05
Q 555.45 685.9 556.2 685.5 556.85 685.2 557.3 685.2 578.95 684.75 602.25 672 631.55 655.9 643.35 628.05 644.9 624.4 646.6 623.85 648.2 623.35 651.5 625.15 665.8 632.8 685.45 633.9 719.2 635.75 745 616.8 759.9 605.8 767.85 592.55 776.45 578.15 777.15 560.6 777.25 558.75 777.95 557.95 778.7 557.2 780.55 556.85 788.05 555.45 792.95 554.15 799.65 552.35 804.9 549.95 827.05 539.95 840.95 524.85 855.85 508.6 861.7 486.05 862.4 483.5 862.8 477.5 863.15 471.95 864.15 469
L 864.15 463
Q 863.45 462.45 863.3 461.5 863.25 461.35 863.2 459.8 862.25 436.4 845.6 415.15 844.15 413.3 843.9 411.9 843.6 410.35 844.4 408.15 856.2 375.75 838.5 348.1 822.65 323.25 793.8 315.15 792.15 314.65 791.45 314.15 790.5 313.4 790.1 311.85 786.95 298.1 777.95 287.3 769.95 277.65 756.8 269.8 Z"/>
</g>

<g id="Layer0_0_MEMBER_1_FILL">
<path fill="#FFFFFF" stroke="none" d="
M 758.2 273.55
Q 748.45 267.4 736.25 265.15 725.95 263.25 712.6 263.85 680.15 265.45 660.8 290.55 659.35 292.45 653.15 301.15 652.3 300.1 652.35 299.2 652.35 298.7 652.85 297.85 655.15 294.05 656.3 292.35 658.3 289.35 660.35 287.25 661.6 286 661.65 285.05 661.75 283.95 660.45 282.75 656.45 278.9 654.05 276.85 650.35 273.8 646.9 271.85 638.2 266.9 627.75 265 618.85 263.4 607.4 263.8 584.3 264.7 566.95 280.6 556.4 290.3 551.45 305.15 551.25 305.8 550.9 307.4 550.45 308.6 549.15 308.15 547.9 307.7 548.3 306.4 549.05 304.9 549.2 304.25 550.1 301.2 552 297.3 552.75 295.7 552.6 294.75 552.4 293.6 550.85 292.8 550.05 292.4 548.8 291.4 547.35 290.25 546.8 289.9 508.3 265.8 465.4 282.9 446.35 290.5 433.9 308.1 432.25 310.45 432.4 311.8 432.6 313.3 435.1 314.75 437.7 316.25 441.1 318.7 443.1 320.1 446.95 322.95 447.55 323.4 449.1 324.35 450.15 325.35 449.2 326.5 448.45 327.4 447.35 326.65 446.15 325.45 445.6 325 436.25 316.65 423.4 310.85 394.7 298 360 303.25 323.8 308.7 298.9 338.6 272.8 369.9 282.75 409.95 283 411 283.8 413.2 284.2 415.3 282.9 417.3 280.45 413.6 279.75 408.45 279.35 405.4 277.8 404.5 276.3 403.65 273.25 404.4 252.8 409.2 237.8 424.5 223.85 438.7 223.7 460.75 223.5 482.95 237.55 497 256.9 516.35 284.95 517.05 286.2 517.1 288.75 516.9 291 516.9 292.45 517.65 292.25 518.5 291.8 518.8 291.5 519 290.85 519.1 284 520 276.5 518.85 270.15 517.9 262.6 515.3 254.8 512.65 252.7 513.35 250.6 514.05 245.75 521 245.5 521.3 244.2 523.55 234.95 539.45 238.7 559.05 242.5 579 257.55 590.4 272.25 601.55 287.65 604.75 303.5 608 320.7 603 321.5 602.8 323.2 602.2 324.7 601.95 326 603.2 321.1 606.4 315.8 607.05 312.05 607.55 311.55 608.5 311.05 609.45 313.2 612.3 331.3 636.85 360.35 648.65 389.8 660.55 420.25 657.25 441.35 654.9 460.25 646.1 462.7 644.95 462.95 643.65 463.15 642.5 461.75 640.3 460.4 638.2 458.65 634.9
L 455.75 629.35
Q 455.25 628.4 455.15 627.95 455 627.1 455.7 626.7 456.65 626.15 457.25 626.8 457.4 626.95 458.15 628.3
L 459.05 630.1
Q 464.25 642.35 476.95 655.05 501.8 679.75 539.3 682.9 573.7 685.8 602.95 668.75 640.15 647 647.15 605.75 647.55 603.65 647.7 603.25 648.3 601.85 649.8 601.25 650.4 604.85 649.55 609.25 649.35 610.05 647.6 616.7 647 618.8 647.65 620.05 648.2 621.15 650.1 622.15 664.15 629.5 680.5 630.9 699.75 632.55 715.8 628.25 733.2 623.65 747.3 611.95 774.65 589.4 775.15 556.5 775.35 544.75 770.95 532.6 770.5 531.4 770.5 531.15 770.4 530.35 771.1 529.95 772.15 529.4 772.75 530.15 773.05 530.5 773.4 531.7 774.05 533.95 775.45 538.35 776.55 542.25 777 545.1 778.15 552.6 779.45 553.55 780.9 554.6 788.15 552.8 815.6 546.15 835.6 526.35 857 505.25 860.45 477.75 864.6 444.75 844.05 416.85 842.9 415.25 841.95 415.35 841.1 415.5 840.05 417.15 836.9 421.95 836.65 422.35 834.65 425.3 832.9 427.3 828.6 432.3 827 433.75 823.45 437.1 819.6 438.5 821.5 435.95 825 432.2 829.2 427.65 830.5 426.1 850.8 401.95 845.35 372.7 838.3 334.95 798.7 319.35 793.85 317.45 793 317.95 792.2 318.5 792.1 323.6 792.1 324.3 792.15 325.95 791.95 327.25 790.65 327.2 789.5 327.15 789.25 325.8 789.25 324.15 789.2 323.45 787.75 292.15 758.2 273.55 Z"/>
</g>

<g id="Layer0_0_MEMBER_2_FILL">
<path fill="#FFFFFF" stroke="none" d="
M 193.5 474.5
Q 185.65 473.55 175.6 474 163.85 474.55 154.6 478.3 144.45 482.45 136.85 490.55 129.15 498.7 130 509.9 130.9 521.1 139.8 527.95 158.95 542.7 181.15 541 203.2 542.7 220.95 530.05 230.65 523.1 233.1 513.35 235.7 503 229 493.25 222.8 484.2 210.75 479.05 202.85 475.7 193.5 474.5 Z"/>
</g>

<g id="Layer0_0_MEMBER_3_FILL">
<path fill="#FFFFFF" stroke="none" d="
M 101.85 549.15
Q 98.1 553.7 98.05 559.6 98 570.3 109.55 576.25 134.2 589 157.3 574.85 166.15 569.4 166.35 560.2 166.55 551.1 158.1 545.1 146.7 536.9 132.55 538.1 120.8 536.8 110.6 542.4 104.8 545.65 101.85 549.15 Z"/>
</g>

<g id="Layer0_0_MEMBER_4_FILL">
<path fill="#FFFFFF" stroke="none" d="
M 118.05 592.85
Q 118.45 588.85 114.9 585.55 109.95 581 100.65 581.65 91.35 582.25 87.05 587.4 83.15 592.1 87.2 596.8 89.95 600 93.85 601.2 97.25 602.3 102.1 602 107.4 602.95 113.55 599.3 117.7 596.85 118.05 592.85 Z"/>
</g>
</defs>

<g transform="matrix( 1, 0, 0, 1, -84,-261) ">
<use xlink:href="#Layer0_0_MEMBER_0_FILL"/>
</g>

<g transform="matrix( 1, 0, 0, 1, -84,-261) ">
<use xlink:href="#Layer0_0_MEMBER_1_FILL"/>
</g>

<g transform="matrix( 1, 0, 0, 1, -84,-261) ">
<use xlink:href="#Layer0_0_MEMBER_2_FILL"/>
</g>

<g transform="matrix( 1, 0, 0, 1, -84,-261) ">
<use xlink:href="#Layer0_0_MEMBER_3_FILL"/>
</g>

<g transform="matrix( 1, 0, 0, 1, -84,-261) ">
<use xlink:href="#Layer0_0_MEMBER_4_FILL"/>
</g>
</svg>
